X: 021704
T: Brown Bread and Cheese
S: B.Breathnach:"Ceol Rince na hEireann" IV/91 (gan ainm) 
Z: B.Black
L: 1/8
M: 2/4
Q: 280
R: polka
K: D
F2 GF/G/|BA D>d|cA Bc|BA FD|
F2 GF/G/|BA D>d|cA GE|ED D2 :|
f2 f>g|fd Ad|cA Bc|BA FD|
f2 fg|fd Ad|cA Bc|d2 de|
f2 f>g|fd Ad|cA Bc|BA FD|
F2 GF/G/|BA D>d|cA GE|ED D2 ||
